picto/stands-u-it-small.svg

<svg class="color-immutable" width="24" height="24" viewBox="0 0 24 24" fill="none" xmlns="http://www.w3.org/2000/svg"><path d="M0 22.5V1.5C0 0.675 0.675 0 1.5 0H22.5C23.325 0 24 0.675 24 1.5V22.5C24 23.325 23.325 24 22.5 24H1.5C0.675 24 0 23.325 0 22.5Z" fill="#2D327D"/><path d="M16.806 9.757V16.402C16.806 17.361 16.719 18.102 16.545 18.625C15.955 20.389 14.448 21.271 12.023 21.271C10.716 21.271 9.688 21.033 8.939 20.556C8.155 20.054 7.637 19.341 7.386 18.418C7.258 17.931 7.194 17.249 7.194 16.372V9.757H9.647V16.532C9.647 17.388 9.773 18.001 10.024 18.37C10.403 18.939 11.085 19.224 12.07 19.224C12.895 19.224 13.482 19.019 13.831 18.609C14.18 18.199 14.354 17.507 14.354 16.533V9.757H16.806Z" fill="white"/><path d="M5.213 4.381C5.197 4.614 5.119 4.813 4.98 4.978C4.797 5.194 4.539 5.303 4.204 5.303C3.848 5.303 3.571 5.177 3.373 4.926C3.205 4.711 3.12 4.444 3.12 4.123C3.12 3.787 3.22 3.506 3.421 3.282C3.622 3.058 3.89 2.946 4.223 2.946C4.534 2.946 4.784 3.049 4.974 3.254C5.109 3.399 5.184 3.565 5.199 3.754H4.713C4.687 3.626 4.63 3.528 4.543 3.459C4.456 3.39 4.345 3.355 4.212 3.355C3.999 3.355 3.839 3.445 3.734 3.624C3.655 3.761 3.615 3.928 3.615 4.126C3.615 4.329 3.657 4.498 3.74 4.634C3.846 4.807 4.002 4.894 4.209 4.894C4.357 4.894 4.47399 4.85 4.562 4.763C4.65 4.675 4.704 4.548 4.724 4.381H5.213Z" fill="white"/><path d="M6.30799 3.52299C6.55199 3.52299 6.75099 3.604 6.90599 3.766C7.05899 3.926 7.13499 4.139 7.13499 4.406C7.13499 4.682 7.05299 4.90199 6.88999 5.06599C6.73899 5.21799 6.53999 5.295 6.29499 5.295C6.03399 5.295 5.82499 5.20999 5.67099 5.03999C5.52199 4.87699 5.44899 4.66699 5.44899 4.40899C5.44899 4.15499 5.52099 3.948 5.66399 3.789C5.82299 3.612 6.03799 3.52299 6.30799 3.52299ZM6.28499 3.871C6.16699 3.871 6.07299 3.91899 6.00399 4.01399C5.93299 4.10999 5.89799 4.24199 5.89799 4.40899C5.89799 4.58199 5.93299 4.715 6.00299 4.807C6.07499 4.9 6.17299 4.947 6.29699 4.947C6.41299 4.947 6.50499 4.90399 6.57199 4.81899C6.64899 4.72499 6.68699 4.588 6.68699 4.40799C6.68699 4.24 6.65299 4.10899 6.58499 4.01599C6.51499 3.91899 6.41499 3.871 6.28499 3.871Z" fill="white"/><path d="M8.474 3.541V3.973C8.402 3.96 8.344 3.954 8.3 3.954C8.134 3.954 8.012 4.024 7.934 4.163C7.89 4.241 7.868 4.371 7.868 4.553V5.248H7.422V3.568H7.847V3.874C7.968 3.646 8.144 3.533 8.375 3.533C8.403 3.534 8.436 3.536 8.474 3.541Z" fill="white"/><path d="M10.072 4.05999H9.654C9.646 4.00199 9.63 3.95899 9.606 3.92899C9.56 3.86999 9.474 3.83999 9.349 3.83999C9.27 3.83999 9.209 3.85399 9.166 3.88299C9.123 3.91199 9.102 3.952 9.102 4.004C9.102 4.059 9.126 4.09999 9.174 4.12599C9.222 4.15199 9.33 4.18199 9.5 4.217C9.716 4.261 9.872 4.31599 9.968 4.38199C10.081 4.45899 10.137 4.57599 10.137 4.73299C10.137 4.91199 10.067 5.051 9.928 5.15C9.79 5.246 9.608 5.295 9.382 5.295C9.101 5.295 8.895 5.22599 8.764 5.08699C8.675 4.99299 8.626 4.864 8.616 4.701H9.044C9.052 4.777 9.072 4.834 9.102 4.873C9.159 4.943 9.254 4.978 9.387 4.978C9.479 4.978 9.553 4.95899 9.607 4.92199C9.66 4.88399 9.688 4.83399 9.688 4.76999C9.688 4.71299 9.665 4.67 9.618 4.642C9.571 4.614 9.473 4.58199 9.322 4.54699C9.176 4.51299 9.073 4.48699 9.013 4.46799C8.952 4.44899 8.898 4.426 8.849 4.4C8.787 4.364 8.738 4.314 8.703 4.249C8.668 4.184 8.651 4.11299 8.651 4.03399C8.651 3.85999 8.723 3.72699 8.868 3.63599C8.986 3.55999 9.15 3.52299 9.36 3.52299C9.638 3.52299 9.837 3.59399 9.958 3.73499C10.024 3.81199 10.062 3.91999 10.072 4.05999Z" fill="white"/><path d="M10.852 3V3.401H10.406V3H10.852ZM10.852 3.572V5.249H10.406V3.572H10.852Z" fill="white"/><path d="M12.727 5.249H12.272C12.253 5.183 12.243 5.12699 12.243 5.08099C12.104 5.22399 11.924 5.295 11.703 5.295C11.531 5.295 11.396 5.255 11.3 5.175C11.189 5.083 11.134 4.95399 11.134 4.789C11.134 4.57899 11.229 4.433 11.419 4.352C11.496 4.319 11.637 4.289 11.844 4.261C12.021 4.237 12.132 4.21499 12.175 4.19299C12.218 4.17099 12.24 4.12699 12.24 4.05999C12.24 3.91299 12.143 3.83999 11.948 3.83999C11.844 3.83999 11.769 3.85799 11.721 3.89499C11.673 3.93199 11.642 3.99599 11.626 4.08699H11.205C11.218 3.89999 11.289 3.75999 11.416 3.66499C11.543 3.56999 11.724 3.52299 11.959 3.52299C12.218 3.52299 12.41 3.57599 12.534 3.68099C12.591 3.72999 12.63 3.78299 12.649 3.83899C12.668 3.89499 12.677 3.98499 12.677 4.10699C12.677 4.13299 12.675 4.245 12.672 4.445C12.67 4.647 12.669 4.763 12.669 4.793C12.669 4.915 12.673 5.00399 12.68 5.06099C12.686 5.11899 12.702 5.181 12.727 5.249ZM12.236 4.438C12.179 4.474 12.074 4.50199 11.922 4.52299C11.815 4.53899 11.738 4.55999 11.691 4.58599C11.624 4.62199 11.591 4.683 11.591 4.769C11.591 4.839 11.613 4.893 11.657 4.932C11.701 4.971 11.763 4.98999 11.842 4.98999C11.973 4.98999 12.079 4.944 12.16 4.852C12.189 4.82 12.208 4.78699 12.219 4.75299C12.23 4.71899 12.235 4.673 12.235 4.617V4.438H12.236Z" fill="white"/></svg>

<svg class="color-immutable" width="24" height="24" viewBox="0 0 24 24" fill="none" xmlns="http://www.w3.org/2000/svg"><g clip-path="url(#a)"><path d="M0 22.5v-21C0 .675.675 0 1.5 0h21c.825 0 1.5.675 1.5 1.5v21c0 .825-.675 1.5-1.5 1.5h-21C.675 24 0 23.325 0 22.5Z" fill="#2D327D"/><path d="M16.806 9.757v6.645c0 .959-.087 1.7-.261 2.223-.59 1.764-2.097 2.646-4.522 2.646-1.307 0-2.335-.238-3.084-.715-.784-.502-1.302-1.215-1.553-2.138-.128-.487-.192-1.169-.192-2.046V9.757h2.453v6.775c0 .856.126 1.469.377 1.838.379.569 1.061.854 2.046.854.825 0 1.412-.205 1.761-.615.349-.41.523-1.102.523-2.076V9.757h2.452ZM5.213 4.381a1.008 1.008 0 0 1-.233.597c-.183.216-.441.325-.776.325-.356 0-.633-.126-.831-.377-.168-.215-.253-.482-.253-.803 0-.336.1-.617.301-.841.201-.224.469-.336.802-.336.311 0 .561.103.751.308a.81.81 0 0 1 .225.5h-.486a.484.484 0 0 0-.17-.295.518.518 0 0 0-.331-.104.52.52 0 0 0-.478.269.99.99 0 0 0-.119.502c0 .203.042.372.125.508.106.173.262.26.469.26a.48.48 0 0 0 .353-.131.628.628 0 0 0 .162-.382h.489ZM6.308 3.523a.79.79 0 0 1 .598.243c.153.16.229.373.229.64 0 .276-.082.496-.245.66a.803.803 0 0 1-.595.229c-.261 0-.47-.085-.624-.255-.149-.163-.222-.373-.222-.631 0-.254.072-.461.215-.62.159-.177.374-.266.644-.266Zm-.023.348a.33.33 0 0 0-.281.143.652.652 0 0 0-.106.395c0 .173.035.306.105.398.072.093.17.14.294.14a.332.332 0 0 0 .275-.128c.077-.094.115-.231.115-.411 0-.168-.034-.299-.102-.392a.347.347 0 0 0-.3-.145ZM8.474 3.541v.432a1.019 1.019 0 0 0-.174-.019.391.391 0 0 0-.366.209c-.044.078-.066.208-.066.39v.695h-.446v-1.68h.425v.306c.121-.228.297-.341.528-.341.028.001.061.003.099.008ZM10.072 4.06h-.418a.265.265 0 0 0-.048-.131c-.046-.059-.132-.089-.257-.089a.326.326 0 0 0-.183.043.137.137 0 0 0-.064.121.13.13 0 0 0 .072.122c.048.026.156.056.326.091.216.044.372.099.468.165.113.077.169.194.169.351 0 .179-.07.318-.209.417-.138.096-.32.145-.546.145-.281 0-.487-.069-.618-.208a.595.595 0 0 1-.148-.386h.428a.338.338 0 0 0 .058.172c.057.07.152.105.285.105a.385.385 0 0 0 .22-.056.179.179 0 0 0 .081-.152c0-.057-.023-.1-.07-.128a1.211 1.211 0 0 0-.296-.095 4.8 4.8 0 0 1-.309-.079.95.95 0 0 1-.164-.068.379.379 0 0 1-.146-.151.444.444 0 0 1-.052-.215c0-.174.072-.307.217-.398.118-.076.282-.113.492-.113.278 0 .477.071.598.212a.546.546 0 0 1 .114.325ZM10.852 3v.401h-.446V3h.446Zm0 .572v1.677h-.446V3.572h.446ZM12.727 5.249h-.455a.629.629 0 0 1-.029-.168.72.72 0 0 1-.54.214c-.172 0-.307-.04-.403-.12a.474.474 0 0 1-.166-.386c0-.21.095-.356.285-.437.077-.033.218-.063.425-.091.177-.024.288-.046.331-.068.043-.022.065-.066.065-.133 0-.147-.097-.22-.292-.22-.104 0-.179.018-.227.055-.048.037-.079.101-.095.192h-.421a.544.544 0 0 1 .211-.422c.127-.095.308-.142.543-.142.259 0 .451.053.575.158a.37.37 0 0 1 .115.158.915.915 0 0 1 .028.268l-.005.338-.003.348c0 .122.004.211.011.268.006.058.022.12.047.188Zm-.491-.811c-.057.036-.162.064-.314.085a.734.734 0 0 0-.231.063c-.067.036-.1.097-.1.183 0 .07.022.124.066.163a.27.27 0 0 0 .185.058.403.403 0 0 0 .318-.138.271.271 0 0 0 .059-.099.46.46 0 0 0 .016-.136v-.179h.001Z" fill="#fff"/></g><defs><clipPath id="a"><path fill="#fff" d="M0 0h24v24H0z"/></clipPath></defs></svg>
